X:1
T:He Cares for Me
T:He Cares for Me
T:F. Clark Perry
T:F. Clark Perry, 1918
T:Public Domain Courtesy of the Cyber Hymnal™
T:Public Domain Courtesy of the Cyber Hymnal™
C:F. Clark Perry
Z:Public Domain
Z:Courtesy of the Cyber Hymnal™
%%score ( 1 2 ) ( 3 4 )
L:1/8
Q:1/4=95
M:6/8
K:Eb
V:1 treble 
V:2 treble 
V:3 bass 
V:4 bass 
V:1
 B,"^Solo" | (z [G,B,])[B,EG] (z [EG])[B,EG] | z [FA][EA] [DAB]2 B, | %3
w: 1.~I|* fear * the|* * * foe|
w: 2.~He|* is * a|* * * faith-|
w: 3.~When|* time * shall|* * * be|
 z [G,B,][B,EG] (z [EG])[B,EG] | z [B,F][B,E] [B,DA]2 A | z [FA][FAc] (z [B,D])[B,DF] | %6
w: * no * more,|* * * My|* doubts * and|
w: * ful * guide,|* * * Who|* ne- * ver|
w: * no * more,|* * * And|* sor- * row’s|
 z [EG][EGB] (z [B,E])[B,EG] | z [=A,E][A,EG] | z [CEF][EF_Ac] | z [DF][EA] [FAB]2 ||"^Duet" [AB] | %11
w: * fears * are|* o’er,|* For|||
w: * leaves * my|* side,|* His|||
w: * night * is|* o’er,|* What|||
 [Ge]2 [GB] [Bd]2 [Ac] | [FA]3- [FA]2 [FA] | [Bd]2 [FA] [Ac]2 [GB] | [EG]3- [EG]2 ||"^Quartet" E | %16
w: ev- ery day, a-|long * life’s|way, I walk se-|cure *|and|
w: love the light that|breaks * the|night, And bids the|sha- *|dows|
w: joy di- vine, what|rap- * ture|mine, When I that|land *|shall|
 [EG]2 E [DA]2 [DF] | [EB]2 E !fermata![Ee]2 [EF] | [EG] [EB]2 [EG]2 [DF] | E3- E2 || %20
w: free. My Sav- ior|and my friend, On|whom I can de-|pend, *|
w: flee. Tho’ storm- y|bil- lows roll, They|can- not reach my|soul, *|
w: see! And with the|saints pass in Be-|yond the reach of|sin, *|
"^Refrain" B, | (EF)G (z2 x2 | F3-) [DF]2 B, | FGA (z2 x5 | G3-) !fermata![EG]2 [AB] | %25
w: He|chang- * es|* not, what-|* * e’er|* my lot,|
w: For|He * who|* knows will|* * soothe|* my woes,|
w: Saved|by * His|* grace, I’ll|* * see|* the face|
 [Ge]2 [Gd] [Ae]2 [Ac] | [GB]2 [^Fc] ([GB][EG]) (E/F/) | [EG] [EB]2 [EG]2 [DF] | [B,E]3- [B,E]2 |] %29
w: * And al- ways|cares for me. * He *|cares for me, so|true *|
w: * And al- ways|cares for me. * * *|||
w: * Of Him who|cares for me. * * *|||
V:2
 x | E2 c2 x2 | B3- x3 | E2 c2 x2 | A3- x3 | d2 A2 x2 | c2 G2 x2 | F2 x | =A2 x | B3 x2 || x | x6 | %12
 x6 | x6 | x5 || E | x2 E x3 | x2 E x3 | x6 | E3- E2 || x | x3 F3- D | E2 E x3 | x3 G6- E | %24
 F2 F x3 | x6 | x5 E | x6 | x5 |] %29
V:3
 B,, | E,2 G, C2 G, | B,3- B,2 B,, | E,2 G, C2 G, | A,3- A,2 A, | D2 C A,2 A, | C2 B, G,2 G, | %7
w: ~|~ ~ ~ ~|~ * ~|~ ~ ~ ~|~ * ~|~ ~ ~ ~|~ ~ ~ ~|
 F,2 G, | =A,2 C | B,3- B,2 || z | (E,G,)B, (B,,F,)B, | (B,,F,B, B,,F,)B, | (B,,F,)B, (B,,F,)B, | %14
w: ~ ~|~ ~|~ *||~ * ~ ~ * ~|~ * * * * ~|~ * ~ ~ * ~|
 (E,G,B, E,2) || [E,G,] | [E,B,]2 [G,B,] [F,B,]2 [A,B,] | [G,B,]2 [G,_D] !fermata![A,C]2 [=A,C] | %18
w: ~ * * *|~|~ ~ ~ ~|~ ~ ~ ~|
 B, [B,,G,]2 [B,,B,]2 [B,,A,] | [E,G,]3- [E,G,]2 || z | z3 z2 [B,,B,] x | %22
w: ~ ~ ~ ~|~ *||He|
 [C,=A,]2 [C,A,] [B,,B,]2 z | z3 z2 [E,B,] x4 | [D,=B,]2 [D,B,] !fermata![C,C]2 [D,B,] | %25
w: cares for me,|So|true is He *|
 [E,B,]2 [E,B,] [E,C]2 [E,D] | (EB,)[E,=A,] [E,B,]2 [C,A,] | [B,,B,] [B,,G,]2 [B,,B,]2 [B,,A,] | %28
w: |||
 [E,G,]3- [E,G,]2 |] %29
w: |
V:4
 x | x6 | x6 | x6 | x6 | x6 | x6 | x3 | x3 | x5 || x | x6 | x6 | x6 | x5 || x | x6 | x6 | B, x5 | %19
 x5 || x | x7 | x6 | x10 | x6 | x6 | E,2 x4 | x6 | x5 |] %29

